X: 8508
T: Creel Of Turf, The
R: jig
M: 6/8
K: Eminor
|:EBB BAG|FDF AGF|EBB Bcd|AGF EFD|
EBB BAG|FDF AGF|EBB Bcd|AGF E2D:|
|:Bee efg|fdB AFD|Bee efg|fdf e2A|
Bee efg|fdB AFD|EBB Bcd|AGF E2E:|

